X: 117201
T: BELLADRUM HOUSE
Q: "Strathspey."
R:  Strathspey.
%R: strathspey
B: James Kerr "Merry Melodies" v.1 p.17 s.2 #1
Z: 2017 John Chambers <jc:trillian.mit.edu>
M: C
L: 1/8
K: D
uA, |\
(3vDEF uG>uB (A<F) F>B | (A<F) (3(FED) E2 E>uF |\
(3DEF G>B (A<F) (3(FED) | vG>vB (A<F) D2-D :|\
uf |\
ve>vAuf>uA g>Af>A | e>Ag>f e2(ef) |
e>Af>A g>Af>A | (3fga (3gfe d>AF>A |\
d>fA>f d>fA>f | d>fA>f e2 (e>g) |\
(3fga (3gfe (3dcB (AGF) | G>B (A<F) D2-D |]

%%sep 1 1 500
%%sep 1 1 500

